src/actions/22/distribute-horizontal-equal.svg

<svg xmlns="http://www.w3.org/2000/svg" viewBox="0 0 22 22">
  <defs id="defs3051">
    <style type="text/css" id="current-color-scheme">
      .ColorScheme-Text {
        color:#363636;
      }
      </style>
  </defs>
 <path 
    style="fill:currentColor;fill-opacity:1;stroke:none" 
	d="m6 3v4l3-2-3-2m10 0l-3 2 3 2v-4m-7 3v2h-6v7h6v4h1v-5-6-2h-1m3 0v3 8 2h1v-2h6v-9h-6v-2h-1m-8 3h5v5h-5v-5m9 0h5v7h-5v-7"
	class="ColorScheme-Text"
    />
</svg>

<svg xmlns="http://www.w3.org/2000/svg" viewBox="0 0 22 22">
    <path d="M6 3v4l3-2-3-2m10 0-3 2 3 2V3M9 6v2H3v7h6v4h1V6H9m3 0v13h1v-2h6V8h-6V6h-1M4 9h5v5H4V9m9 0h5v7h-5V9" style="fill:currentColor;fill-opacity:1;stroke:none;color:#050505;opacity:.7"/>
</svg>
